contributed-vectors/hay_day.svg

<svg width="192" height="192" viewBox="0 0 192 192" fill="none" xmlns="http://www.w3.org/2000/svg">
<ellipse cx="120" cy="102.5" rx="14" ry="20.5" fill="white"/>
<ellipse cx="119" cy="106" rx="4" ry="6" fill="#4A4A4A"/>
<ellipse cx="117" cy="102" rx="2" ry="3" fill="white"/>
<path d="M60.5 156C66.5 151.2 65.3333 131.333 64 122L85 119C91.6667 127.5 105.4 145.9 107 151.5C108.6 157.1 113.333 161.167 115.5 162.5C113.9 162.9 113.167 162.667 113 162.5L117 169C117 169 110 177 94 178C78 179 63.6 160.7 62 161.5C60.4 162.3 59 162.5 58.5 162.5C60.9 160.9 63.1667 156.5 64 154.5L60.5 156Z" fill="#ECECEC"/>
<path d="M91.6207 158.766C89.2678 157.218 88.7675 151.758 88.7675 151.758L99.6655 149.961C99.6655 149.961 102.267 156.001 108.131 160.677C110.917 162.898 124.155 173.008 121.116 174.868C117.882 176.848 106.231 175.974 103.637 173.209C99.3511 168.64 95.3764 161.236 91.6207 158.766Z" fill="#BA6561"/>
<path d="M89.0001 155.5C87.1119 153.411 88.0003 148 88.0003 148L99.0001 149C99.0001 149 100 155.5 104.5 161.5C106.638 164.351 116.909 177.463 113.5 178.5C109.873 179.603 98.8156 175.828 97.0001 172.5C94.0001 167 92.0143 158.835 89.0001 155.5Z" fill="#FF837D"/>
<path d="M43.9999 76.9994C47.1832 78.6004 52.9999 78.4994 52.9999 78.4994L114.5 99.5C114.5 99.5 115.219 89.3315 120 84C126.647 76.5873 135.143 74.4016 144.5 70.9995C155.5 67 162.5 44.5 154 32.5C147.092 22.7477 127.5 20.5 125 41.4994C124.109 48.9838 121 57.7486 113.5 56.9995C108.5 56.5 107 44.5 109.5 27.4994C110.706 19.2987 105.559 10.1305 95 11.999C85.61 13.6606 70.3986 20.2304 69.9999 30.4994C69.6401 39.769 80 43.9995 81.9999 53.4995C82.6033 56.3656 77.4999 59.4995 77.4999 59.4995C77.4999 59.4995 74.0738 59.5804 69.9999 56.9995C63.1991 52.6908 61.5059 37.997 52.9999 38.9994C45.7002 39.8598 41.1688 46.4765 38.9999 53.4995C36.2314 62.4644 35.6176 72.7836 43.9999 76.9994Z" fill="#FF837D"/>
<path d="M117.148 147.926C118.207 145.661 102.5 118.5 102.5 118.5L76.0002 123.999C76.0002 123.999 76.2928 153.999 96.9999 154C104.484 154 113.978 154.706 117.148 147.926Z" fill="#F9DE81"/>
<path d="M115 146C109 132.5 102.5 118.5 102.5 118.5L82.5001 120.501C82.5001 120.501 82.5 131.5 96.0001 141.499C102.014 145.954 118.039 152.839 115 146Z" fill="#C39A54"/>
<path d="M89.5 128.5C87.6117 126.411 84.5 123 84.5 123L99.5 122C99.5 122 104.568 130.239 105 134.5C105.36 138.045 106.909 142.463 103.5 143.5C99.8727 144.603 99.8155 138.828 98 135.5C95 130 92.5142 131.835 89.5 128.5Z" fill="#C4C4C4"/>
<path d="M89.5 128.5C87.6117 126.411 84.5 123 84.5 123L99.5 122C99.5 122 104.568 130.239 105 134.5C105.36 138.045 106.909 142.463 103.5 143.5C99.8727 144.603 99.8155 138.828 98 135.5C95 130 92.5142 131.835 89.5 128.5Z" fill="#BA6561"/>
<path d="M126 137.5C124.5 139.5 86.5 121.5 86.5 121.5L112.5 104C112.5 104 120.753 111.944 123.5 118.5C126.392 125.403 130.49 131.513 126 137.5Z" fill="#F9DE81"/>
<path d="M117 95C117 111.569 93.0538 124.5 74 124.5C54.9462 124.5 47.5 114.069 47.5 97.5C47.5 80.9315 64.4462 58.5 83.5 58.5C102.554 58.5 117 78.4315 117 95Z" fill="white"/>
<ellipse cx="89.5" cy="97.5" rx="7.5" ry="11.5" fill="#4A4A4A"/>
<ellipse cx="86.5" cy="90" rx="3.5" ry="6" fill="white"/>
</svg>

<svg xmlns="http://www.w3.org/2000/svg" width="192" height="192" fill="none"><ellipse cx="120" cy="102.5" fill="#fff" rx="14" ry="20.5"/><ellipse cx="119" cy="106" fill="#4A4A4A" rx="4" ry="6"/><ellipse cx="117" cy="102" fill="#fff" rx="2" ry="3"/><path fill="#ECECEC" d="M60.5 156c6-4.8 4.833-24.667 3.5-34l21-3c6.667 8.5 20.4 26.9 22 32.5 1.6 5.6 6.333 9.667 8.5 11-1.6.4-2.333.167-2.5 0l4 6.5s-7 8-23 9-30.4-17.3-32-16.5c-1.6.8-3 1-3.5 1 2.4-1.6 4.667-6 5.5-8l-3.5 1.5Z"/><path fill="#BA6561" d="M91.62 158.766c-2.352-1.548-2.853-7.008-2.853-7.008l10.898-1.797s2.602 6.04 8.466 10.716c2.786 2.221 16.024 12.331 12.985 14.191-3.234 1.98-14.885 1.106-17.479-1.659-4.286-4.569-8.26-11.973-12.016-14.443Z"/><path fill="#FF837D" d="M89 155.5c-1.888-2.089-1-7.5-1-7.5l11 1s1 6.5 5.5 12.5c2.138 2.851 12.409 15.963 9 17-3.627 1.103-14.684-2.672-16.5-6-3-5.5-4.986-13.665-8-17ZM44 77c3.183 1.6 9 1.5 9 1.5l61.5 21s.719-10.168 5.5-15.5c6.647-7.413 15.143-9.598 24.5-13 11-4 18-26.5 9.5-38.5-6.908-9.752-26.5-12-29 9-.891 7.484-4 16.249-11.5 15.5-5-.5-6.5-12.5-4-29.5 1.206-8.201-3.941-17.37-14.5-15.501-9.39 1.662-24.601 8.231-25 18.5-.36 9.27 10 13.5 12 23 .603 2.867-4.5 6-4.5 6s-3.426.081-7.5-2.5c-6.8-4.308-8.494-19.002-17-18-7.3.86-11.831 7.477-14 14.5-2.769 8.965-3.382 19.285 5 23.5Z"/><path fill="#F9DE81" d="M117.148 147.926c1.059-2.265-14.648-29.426-14.648-29.426L76 123.999s.293 30 21 30.001c7.484 0 16.978.706 20.148-6.074Z"/><path fill="#C39A54" d="M115 146c-6-13.5-12.5-27.5-12.5-27.5l-20 2.001s0 10.999 13.5 20.998c6.014 4.455 22.039 11.34 19 4.501Z"/><path fill="#C4C4C4" d="M89.5 128.5c-1.888-2.089-5-5.5-5-5.5l15-1s5.068 8.239 5.5 12.5c.36 3.545 1.909 7.963-1.5 9-3.627 1.103-3.684-4.672-5.5-8-3-5.5-5.486-3.665-8.5-7Z"/><path fill="#BA6561" d="M89.5 128.5c-1.888-2.089-5-5.5-5-5.5l15-1s5.068 8.239 5.5 12.5c.36 3.545 1.909 7.963-1.5 9-3.627 1.103-3.684-4.672-5.5-8-3-5.5-5.486-3.665-8.5-7Z"/><path fill="#F9DE81" d="M126 137.5c-1.5 2-39.5-16-39.5-16l26-17.5s8.253 7.944 11 14.5c2.892 6.903 6.99 13.013 2.5 19Z"/><path fill="#fff" d="M117 95c0 16.569-23.946 29.5-43 29.5s-26.5-10.431-26.5-27c0-16.569 16.946-39 36-39S117 78.431 117 95Z"/><ellipse cx="89.5" cy="97.5" fill="#4A4A4A" rx="7.5" ry="11.5"/><ellipse cx="86.5" cy="90" fill="#fff" rx="3.5" ry="6"/></svg>
